!!!OTL: "Mailied" DER MAIEN ISCH KOMMEN
!!!ARE: Europa, Mitteleuropa, Schweiz; Elsass
!!!SCT: Z1272
!!!YEM: Copyright 1995, estate of Helmut Schaffrath.
**kern
*ICvox
*Ivox
*M6/8
*k[f#]
*G:
{8g
=1
8b
8dd
8cc
8b
8g
8a
=2
8b
8dd
8cc
4a}
{8g
=3
8b
8dd
8cc
8b
8g
8a
=4
8b
16dd
16cc
16a
16f#
4g}
{8a
=5
8b
8dd
8cc
4a
16g
16a
=6
8b
8dd
8cc
4a}
{16g
16a
=7
8b
8dd
8cc
8b
8g
8a
=8
4b
8a
4g}
{8a
=9
8b
8dd
8cc
4a
16g
16a
=10
8b
8dd
8cc
4a}
{8g
=11
8b
8dd
8cc
8b
8g
8a
=12
4b
8a
4g}
==
!!!AGN: Natur und Welt
!!!ONB: ESAC (Essen Associative Code) Database: ZUCCAL
!!!AMT: compound duple
!!!AIN: vox
!!!EED: Helmut Schaffrath
!!!EEV: 1.0
*-
